X:1
T:Ocean Grove, 10.10.12.10
T:Ocean Grove, 10.10.12.10
T:James H. Burke, 1896
T:Public Domain Courtesy of the Cyber Hymnal™
C:James H. Burke, 1896
Z:Public Domain
Z:Courtesy of the Cyber Hymnal™
%%score ( 1 2 ) ( 3 4 )
L:1/8
Q:1/4=110
M:4/4
K:Eb
V:1 treble 
V:2 treble 
V:3 bass 
V:4 bass 
V:1
 [EG]4 E2 [DF]2 | [EG]2 [EA]2 [EB]4 | [EG]4 [FA]2 [DF]2 | E8 | [EG]4 E2 [DF]2 | [EG]2 [EA]2 [EB]4 | %6
 [EG]4 [FA]2 [DF]2 | E8 | [Ec]4 [EA]2 [Ec]2 | [EB]2 [EG]2 [GB]4 | [FA]4 [DF]2 [FA]2 | %11
 [DA]2 [DF]2 [EG]4 | [EB]4 [EG]2 [GB]2 | [Ae]2 [Ac]2 (B2 E2) | [EG]4 [FA]2 [DF]2 | E8 |] %16
V:2
 x4 E2 x2 | x8 | x8 | E8 | x4 E2 x2 | x8 | x8 | E8 | x8 | x8 | x8 | x8 | x8 | x4 E4 | x8 | E8 |] %16
V:3
 [E,B,]4 [E,G,]2 [B,,B,]2 | [E,B,]2 [F,B,]2 [G,B,]4 | [E,B,]4 [B,,B,]2 [B,,A,]2 | [E,G,]8 | %4
 [E,B,]4 [E,G,]2 [B,,B,]2 | [E,B,]2 [F,B,]2 [G,B,]4 | [E,B,]4 [B,,B,]2 [B,,A,]2 | [E,G,]8 | %8
 [A,,A,]4 [A,,C]2 [A,,A,]2 | [E,G,]2 [E,B,]2 [E,B,]4 | [B,,B,]4 [B,,B,]2 [B,,B,]2 | %11
 [B,,B,]2 [B,,B,]2 [E,B,]4 | [E,G,]4 [E,B,]2 [E,B,]2 | [A,,C]2 [C,A,]2 ([E,G,]2 [G,B,]2) | %14
 B,4 [B,,B,]2 [B,,A,]2 | [E,G,]8 |] %16
V:4
 x8 | x8 | x8 | x8 | x8 | x8 | x8 | x8 | x8 | x8 | x8 | x8 | x8 | x8 | B,4 x4 | x8 |] %16

